!!!COM:	la Rue, Pierre de
!!!CDT:	~1452///-1518/11/20
!!!OTL:	Il viendra le jour d&eacute;sir&eacute;
!!!AGN:	Song; Chanson
!!!SCT:	Rue3012
!!!SCA:	Rue3012
!!!voices:	4
**kern	**kern	**kern	**kern
*staff4	*staff3	*staff2	*staff1
*Ivox	*Ivox	*Ivox	*Ivox
*I"Bassus	*I"Tenor	*I"Contra	*I"Discantus
*I'B	*I'T	*I'C	*I'D
*clefF4	*clefGv2	*clefGv2	*clefG2
*k[]	*k[]	*k[]	*k[]
*M2/1	*M2/1	*M2/1	*M2/1
*met(C|)	*met(C|)	*met(C|)	*met(C|)
=1-	=1-	=1-	=1-
0E	0r	1B	0r
.	.	4G/	.
.	.	4A/	.
.	.	4B\	.
.	.	8A/L	.
.	.	8B/J	.
=2	=2	=2	=2
1E	0r	2c\	0r
.	.	1B	.
1E	.	.	.
.	.	[2e\	.
=3	=3	=3	=3
1F	0r	2e\]	0r
.	.	2d\	.
1E	.	1e	.
=4	=4	=4	=4
0AA	0A	2r	1e
.	.	1e	.
.	.	.	4c/
.	.	.	4d/
.	.	4d\	4e/
.	.	4c\	8d/L
.	.	.	8e/J
=5	=5	=5	=5
1r	1A	2d\	2f/
.	.	2.c\	1e
1AA	1A	.	.
.	.	4d\	.
.	.	[2e\	[2a/
=6	=6	=6	=6
2.E\	1B	2e\]	2a/]
.	.	1e	2g/
8D\L	.	.	.
8E\J	.	.	.
1F	1A	.	1a
.	.	2d\	.
=7	=7	=7	=7
[0E	1r	1.e	0r
.	1B	.	.
.	.	4d\	.
.	.	4c\	.
=8	=8	=8	=8
0E]	4G/	2B\	1b
.	4A/	.	.
.	4B\	2E/	.
.	8A/L	.	.
.	8B/J	.	.
.	2c\	1e	4g/
.	.	.	4a/
.	2B\	.	4b\
.	.	.	8a/L
.	.	.	8b/J
=9	=9	=9	=9
1r	2r	2r	2cc\
.	2.e\	2.g\	2b\
2.E\	.	.	2r
.	4d\	4f\	.
.	[2c\	4e\	[2ee\
4F\	.	4d\	.
=10	=10	=10	=10
2G\	4c\]	0e	4ee\]
.	4B\	.	4dd\
1A	2A/	.	1cc
.	1B	.	.
2G\	.	.	[2b\
=11	=11	=11	=11
1A	1c	1e	2b\]
.	.	.	2a/
1r	2B\	2r	1b
.	2d\	2d\	.
=12	=12	=12	=12
1A	1c	2e\	0r
.	.	2f\	.
[1G	2.B\	1g	.
.	4c\	.	.
=13	=13	=13	=13
2G\]	2d\	1G	2r
4F\	1e	.	2b\
4E\	.	.	.
1F	.	1A	1a
.	2d\	.	.
=14	=14	=14	=14
2.E\	1e	1B	2.g/
4F\	.	.	4a/
2G\	2r	2E/	2b\
[2A\	2e\	2e\	[2cc\
=15	=15	=15	=15
2A\]	1d	2f\	2cc\]
2G\	.	2g\	2b\
[1A	2.c\	1e	1cc
.	4d\	.	.
=16	=16	=16	=16
2A\]	2e\	1A	2r
2F\	1f	.	2cc\
2.G\	.	2.B\	1b
.	2e\	.	.
4F\	.	4c\	.
=17	=17	=17	=17
2D\	1f	2d\	2.a/
1F	.	2c\	.
.	.	.	4b\
.	2r	1A	2cc\
4E\	2f\	.	[2dd\
4D\	.	.	.
=18	=18	=18	=18
1A	1e	2r	2dd\]
.	.	2A/	2cc#i\
1r	1d	[1B	[1dd
=19	=19	=19	=19
1G	2r	2B\]	2dd\]
.	4B\	4A/	4cc\
.	4c\	4G/	4b\
2F\	4d\	4A/	2a/
.	8c\L	4B\	.
.	8d\J	.	.
2E\	[2e\	[2c\	2g/
=20	=20	=20	=20
1F	2e\]	2c\]	1a
.	2d\	2A/	.
2E\	1e	2B\	2g/
4C/	.	[2c\	4e/
4D\	.	.	4f/
=21	=21	=21	=21
2E\	2c\	2c\]	4g/
.	.	.	8f/L
.	.	.	8g/J
2F\	2A/	2d\	1a
1E	1B	1e	.
.	.	.	2g#i/
=22	=22	=22	=22
2r	0A	0e	0a
2.AA/	.	.	.
4BB/	.	.	.
4C/	.	.	.
4D\	.	.	.
=23	=23	=23	=23
2BB/	0r	2r	0r
2AA/	.	2.A/	.
2.F\	.	.	.
.	.	4B\	.
.	.	4c\	.
4E\	.	4d\	.
=24	=24	=24	=24
4D\	0r	2B\	0r
4C/	.	.	.
2D\	.	1A	.
2C/	.	.	.
2AA/	.	[2c\	.
=25	=25	=25	=25
2C/	0r	4c\]	0r
.	.	4B\	.
2D\	.	1A	.
1BB	.	.	.
.	.	2G#i/	.
=26	=26	=26	=26
1AA	1r	1A	2r
.	.	.	2.e/
1r	2.c\	1r	.
.	.	.	4f/
.	.	.	4g/
.	4B\	.	4a/
=27	=27	=27	=27
0r	4A/	0r	2f/
.	4G/	.	.
.	2A/	.	1e
.	2G/	.	.
.	2E/	.	[2g/
=28	=28	=28	=28
0r	2G/	0r	4g/]
.	.	.	4f/
.	2A/	.	1e
.	1F	.	.
.	.	.	2d/
=29	=29	=29	=29
1r	1E	2.G/	0e
.	.	4A/	.
1E	1r	4B\	.
.	.	4c\	.
.	.	[2B\	.
=30	=30	=30	=30
1E	2.G/	4B\]	1r
.	.	4A/	.
.	.	4G/	.
.	4A/	4F/	.
1E	4B\	1E	1g
.	4c\	.	.
.	[2B\	.	.
=31	=31	=31	=31
2.E\	4B\]	1r	2.g/
.	4A/	.	.
.	4G/	.	.
4F\	4F/	.	4a/
4G\	1E	1e	4b\
4A\	.	.	4cc\
[2G\	.	.	[2b\
=32	=32	=32	=32
4G\]	1r	2d\	4b\]
4F\	.	.	4a/
4E\	.	2.g\	4g/
4D\	.	.	4f/
2.C/	[1E	.	1e
.	.	4f\	.
.	.	4e\	.
4BB/	.	4d\	.
=33	=33	=33	=33
1AA	2E/]	1c	1r
.	2F/	.	.
1GG	2.G/	2.B\	[1b
.	4A/	4c\	.
=34	=34	=34	=34
1r	1B	2d\	1b]
.	.	2G/	.
[1E	1G	2r	1b
.	.	[2g\	.
=35	=35	=35	=35
1E]	2r	2g\]	1cc
.	1G	1g	.
1E	.	.	1b
.	2G/	[2e\	.
=36	=36	=36	=36
1F	1A	2e\]	1r
.	.	2d\	.
1E	1B	[1e	1b
=37	=37	=37	=37
1r	1E	2e\]	1b
.	.	4d\	.
.	.	4c\	.
1E	1r	1B	1b
=38	=38	=38	=38
1E	0G	2r	1cc
.	.	1e	.
1E	.	.	1b
.	.	[2e\	.
=39	=39	=39	=39
1F	1A	4e\]	1r
.	.	4c\	.
.	.	2d\	.
1E	1B	1G	2r
.	.	.	2b\
=40	=40	=40	=40
1r	2B\	2r	2b\
.	2G/	2.e\	1cc
2r	2A/	.	.
.	.	4c\	.
2E\	2B\	[2e\	4b\
.	.	.	4a/
=41	=41	=41	=41
2E\	0c	4e\]	2g/
.	.	4d\	.
1F	.	4c\	1a
.	.	4B\	.
.	.	2A/	.
4E\	.	2B\	4g/
4D\	.	.	4f/
=42	=42	=42	=42
2C/	1r	2c\	2e/
4D\	.	2A/	2.a/
4E\	.	.	.
4F\	1d	2r	.
8E\L	.	.	8g/L
8F\J	.	.	8a/J
[2G\	.	2G/	2b\
=43	=43	=43	=43
2G\]	1e	2B\	2g/
4E\	.	2G/	2.b\
4F\	.	.	.
4G\	1e	2B\	.
8F\L	.	.	8a/L
8G\J	.	.	8b/J
[2A\	.	2A/	2cc\
=44	=44	=44	=44
2A\]	1f	2c\	2a/
4F\	.	2A/	2.cc\
4G\	.	.	.
4A\	1f	2c\	.
8G\L	.	.	8b\L
8A\J	.	.	8cc\J
2B\	.	2B\	2dd\
=45	=45	=45	=45
2c\	2e\	2r	2.g/
1G	4B\	1d	.
.	4c\	.	4a/
.	4d\	.	4b\
.	4e\	.	4cc\
[2F\	[2f\	2d\	[2a/
=46	=46	=46	=46
4F\]	2f\]	2.c\	2a/]
4E\	.	.	.
2C/	1e	.	2g/
.	.	4B\	.
1D	.	[1A	1f
.	2d\	.	.
=47	=47	=47	=47
2AA/	2e\	2A/]	2r
1C	4c\	4G/	4e/
.	4d\	4F/	4f/
.	4e\	2E/	4g/
.	4f\	.	4a/
4BB/	[2d\	2F/	[2b\
4AA/	.	.	.
=48	=48	=48	=48
2GG/	2d\]	2G/	4b\]
.	.	.	4a/
2AA/	2c\	2.E/	1a
1E	1B	.	.
.	.	4D/	.
.	.	2E/	2g#i/
=49	=49	=49	=49
0AAl	0Al	1F	0al
.	.	1El	.
==	==	==	==
*-	*-	*-	*-
!!!RDF**kern: l=long note in original notation
!!!RDF**kern: i=editorial accidental
!!!ENC:	Chris Gage 06-17-2013
!!!END:	2013/08/06/
!!!EED:	Jesse Rodin
!!!EEV:	2013/08/06/
!!!ONB:	Translated from MusicXML and edited on 2013/08/06/ by Craig Sapp
!!muse2ps: C^@{COM}^i2I150v85,85,85,150Q16
